X:216
T:Reel de tante C\'ecile
C:Jacques Joubert
M:2/4
L:1/16
K:G
(3DEF |: G2d2c2B2 | A4- A2B2 | dcBd cBAc | BAGB A2(3DEF |
G2d2c2B2 | A4 -A2B2 | dcBd cBAG |1 FGAB G2(3DEF :|2 FGAB G2d2 |:
g3f efge | d4- d2B2 | cBAc BAGB | AGFG A2d2 |
g3f efge | d4- d2(3efg | dcBd cBAG | FGAB G2d2 :|

